!!!COM: Beethoven
!!!OTL: 24 Variationen uber Venni Amore von V. Righini
!!!Variation: Variation 4 a
**function	**harm	**kern	**kern
*	*	*clefF4	*clefG2
*	*	*k[f#c#]	*k[f#c#]
*M2/4	*M2/4	*M2/4	*M2/4
*D:	*D:	*D:	*D:
=65	=65	=65	=65
*	*	*^	*
4T	4I	4D	4F#	[2A
4T	4V7	4AA	(8GL	.
.	.	.	8EJ)	.
=66	=66	=66	=66	=66
2T	2Ib	4FF#	(8EL	2A]
.	.	.	8DJ)	.
.	.	4r	(8DL	.
.	.	.	8C#J)	.
=67	=67	=67	=67	=67
2T	2IV	4GG	(8C#L	[2d
.	.	.	8BBJ)	.
.	.	4GG	(8BBL	.
.	.	.	8DJ)	.
=68	=68	=68	=68	=68
2T	2Ib	2FF#	8DL	2d]
.	.	.	8AAJ	.
.	.	.	4AA	.
=69	=69	=69	=69	=69
2T	2I	4.DD	8r	4a
.	.	.	16FF#LL	.
.	.	.	16AAJJ	.
.	.	.	[4D	4dd
.	.	8FF#	.	.
=70	=70	=70	=70	=70
2T	2V7b	4.AA	8DL]	4ee
.	.	.	16C#L	.
.	.	.	16EJJ	.
.	.	.	[4G	4aa
.	.	8C#	.	.
=71	=71	=71	=71	=71
4.T	4.I	4.D	8GL]	2ddd
.	.	.	16F#L	.
.	.	.	16EJJ	.
.	.	.	8F#L	.
8T	8viiob/V	8BB	8G#J	.
=72	=72	=72	=72	=72
2D	2V	8C#L	4A	4aa
.	.	8BBJ	.	.
.	.	8AA	4r	4r
.	.	8r	.	.
*	*	*v	*v	*
*-	*-	*-	*-
